X:785
T:Reel 785
M:4/4
K:Dmaj
L:1/8
A|F>D (3DCD FDDC|A,DD (3DCD F2FG|EDCD ECA,C|EDCD EFGE:|dcde dAFA|dcdB cdec|dcdA FGAF|EDCD EFGE|dcdB cdec|dcdB cAGE|FEFE FGAd|cBAG FDD|G|FDDA FADA|FDDE FDDG|FADC DEFD|ECCD EFGE|FADA FDDA|FDDE FDAD|GEFD EDCD|EFGA BAGF|
